X:133
T:Green Banks of Rossbeigh
Z: id:dc-reel-123
M:C
L:1/8
K:E Dorian
dc|BEE2 BAFB|ABde fded|BEE2 BAFA|BFAF DEFA|!
B2Bd BAFB|ABde fded|BEE2 BAFA|BFAF E2:|!
FA|Bdef gfge|dBB2 dBA2|Bdef gfge|dBAF E2ef|!
g2ga gfed|f2fg fedB|ABde fgfe|dBAF E2:|!

